src/main/resources/META-INF/pluginIcon.svg

<?xml version="1.0" encoding="UTF-8" standalone="no"?>
<svg
   width="40"
   height="40"
   viewBox="0 0 40 40"
   version="1.1"
   id="svg35"
   xmlns="http://www.w3.org/2000/svg">
  <defs
     id="defs39" />
  <g
     fill="none"
     fill-rule="evenodd"
     id="g33">
    <path
       fill="#389FD6"
       d="M6.4236434 2.20523678C6.28031814 2.20523678 1.53865445.0988475957 1.77668127 4.85890857 1.82731786 5.87157686 3.22811542 12.5212037 4.89893249 10.5127037 5.50961542 9.77826711 5.89973404 9.45569591 5.99842834 9.2676239 6.04454149 9.29825624 6.00218763 9.31001046 5.68531799 9 5.39670517 8.71763468 5.28847349 8.3594865 5.20399475 8.14348735 5.1738014 8.06628759 5.13725926 7.81156338 5.141922 7.47666851 5.14575499 7.20136894 5.20782539 6.87189304 5.22436796 6.54232173 5.23984409 6.23399647 5.2046404 5.9255877 5.20399475 5.661377 5.20330583 5.3794587 5.25137139 4.08654822 5.55892527 3.46297363 5.69935867 3.17824074 5.83519327 2.9039875 5.99842834 2.68439792 6.22813326 2.37539077 6.46400404 2.17462973 6.4236434 2.20523678zM14.092453 9.67625427C13.5421413 9.7315042 13.1698584 9.74978604 12.9756042 9.73109979 12.5579898 9.69092745 12.3065576 9.50497719 12.2213078 9.49453198 12.0225261 9.47017633 11.8355895 9.68017244 11.8032481 9.73109979 11.7250893 9.85417499 11.6069392 10.2078871 11.8032481 10.3630048 12.0603874 10.566189 12.6891143 10.5530876 12.9620514 10.4883457 13.4790576 10.3657094 13.8558581 10.0950123 14.092453 9.67625427zM13.8729551 5.1985943C13.975287 4.77181316 14.0966383 4.17108283 14.0448496 3.66059799 14.0030802 3.24887393 13.8139979 2.8958545 13.6794083 2.74014957 13.5703931 2.61403135 13.0021732 2.0586089 12.3888881 1.82587831 11.7412826 1.58012378 11.0434269 1.66054926 10.7829514 1.67933192 10.5269818 1.69778965 10.2180623 1.74663844 9.85619306 1.82587831 10.3601241 2.08682202 10.7067508 2.29314799 10.8960732 2.44485622 11.1741066 2.66765055 11.6434111 3.12849219 11.9475741 3.5925049 12.3476048 4.20276779 12.5205392 5.03045283 12.5325157 5.09812827 12.5756826 5.34205254 12.3986986 5.96272047 12.387498 6.23135243 12.3732312 6.57352446 12.4646229 7 12.5325157 7.4121807 12.5577641 7.56546517 12.5726462 7.90416797 12.4646229 8.23214151 12.4120557 8.39174286 12.2865915 8.60582007 12.0882304 8.87437313L12.2015348 9.02520591C12.5537473 8.49657138 12.8675326 7.92984363 13.1428908 7.32502266 13.52249 6.49123788 13.7812056 5.58124066 13.8729551 5.1985943zM7.86703699 10.1014802C7.86703699 9.82533784 7.71405436 9.63119507 7.43791199 9.63119507 7.29430266 9.63119507 6.94503024 10.0210208 6.69516769 10.1917136 6.4645765 10.3492413 5.59491902 10.6112358 5.65742493 10.6701965 5.7071717 10.7171218 6.1787698 10.9504023 6.62105094 10.9323273 6.71762363 10.9283806 7.17404053 10.8836788 7.47125932 10.7021738 7.74620521 10.5342704 7.86703699 10.2341766 7.86703699 10.1014802z"
       id="path25" />
    <path
       fill="#389FD6"
       d="M7,9.25676141 C6.67048534,9.21293458 6.44104677,9.15883826 6.31168427,9.09447246 C5.95581023,8.91740323 5.71898722,8.60785431 5.60121523,8.3359897 C5.4556642,8 5.4487637,8 5.4487637,7.71046433 C5.4487637,7.48244305 5.4487637,7.5 5.5,7.05825086 C5.51171938,6.95720873 5.52300566,6.61730915 5.52300566,6.04591563 C5.52300566,5.94064908 5.51533711,5.76488386 5.5,5.51861996 C6.07442933,5.12872276 6.58856454,4.97528726 7.04240562,5.05831345 C7.34997859,5.11458119 7.44978518,5.37833067 7.5,5.48092938 C7.70911551,5.90819333 7.65624522,6.35868541 7.65624522,7 C7.65624522,7.45041085 7.5,8 7.29514762,8.36904917 C7.20514651,8.53118951 7.10676397,8.8270936 7,9.25676141 Z M6.89946966,6.08283675 C7.06542576,6.11635964 7.20747454,5.92110027 7.21647942,5.82755762 C7.2254843,5.73392313 7.09814771,5.63078283 6.93184283,5.59725994 C6.76579161,5.56369112 6.62367942,5.61255189 6.61489649,5.70595677 C6.60573308,5.79959126 6.7332282,6.04945162 6.89946966,6.08283675 Z"
       id="path27" />
    <path
       fill="#389FD6"
       d="M7.54152124,8.56566417 C7.45765219,8.7103297 7.43362621,8.86107425 7.38311213,9.01789783 C7.35932556,9.09174445 7.31757773,9.18555146 7.25786863,9.29931886 C7.43122749,9.32598897 7.55223015,9.34598477 7.62087661,9.35930625 C7.80452192,9.39494432 7.92980652,9.49132478 7.96352331,9.55495705 C8.14188596,9.89157325 8.11231242,10.0807621 8.12580674,10.321595 C8.13930105,10.5624279 8.07940945,12.6863752 8.22404759,13.2311736 C8.27233487,13.4130539 8.3201772,13.5886623 8.40374756,13.7373749 C8.53027922,13.9625368 8.6956195,14.1260424 8.72716218,14.1563089 C8.86258103,14.2862487 9.28661147,14.5427119 9.72573187,14.4596981 C9.95327939,14.4166813 10.4442779,14.1625375 10.732783,13.7373749 C11.0572122,13.2592718 11.169555,12.4541712 11.2124553,12.1403086 C11.3339801,11.2512228 11.4033188,10.3464241 11.4083473,10.2835239 C11.4198581,10.1395384 11.4462158,9.7689481 11.639305,9.51425171 C11.6984575,9.43622602 11.8316714,9.36458173 12.0389466,9.29931886 C11.8212856,9.0165803 11.677802,8.81935425 11.608496,8.70764071 C11.3322254,8.26232369 11.05162,7.66115038 10.9806468,7.52432716 C10.8548608,7.28183493 10.7825805,7.10741241 10.732783,7 C10.5,6.49789106 10.3984992,5.75355105 10.412561,5.64915491 C10.5,5 10.9076106,4.75331636 11.3291141,4.68994777 C11.5079022,4.66306887 11.7715294,4.66306887 12.1199956,4.68994777 C11.9683304,4.33728646 11.8526905,4.09004719 11.7730759,3.94822996 C11.5704328,3.58726275 11.3551883,3.32567187 11.2124553,3.16345731 C10.7738734,2.66501365 10.2256898,2.32349975 9.77798114,2.13891561 C9.30356978,1.94332232 8.80333801,1.80338625 8.33181556,1.80338625 C7.63499743,1.80338625 7.05804353,2.01493129 6.6233828,2.37946631 C6.02453212,2.8817018 5.74874372,3.68125945 5.69577877,4 C5.69577877,4 5.6213486,4.23650459 5.57377894,4.49475983 C5.54028132,4.67661807 5.51568834,4.88931114 5.5,5.13283902 C5.82080162,4.9819789 6.04314965,4.88681266 6.16704409,4.84734028 C6.53505795,4.73009223 6.7599542,4.73873845 6.84161643,4.73598054 C7.16569481,4.72503575 7.72779558,5.03300072 7.81261219,5.48736024 C7.85052414,5.69045318 7.98331957,6.68807232 7.96352331,6.91739914 C7.94870072,7.0891093 7.95173595,7.37680938 7.88586976,7.68495677 C7.82082627,7.98925521 7.68771588,8.31349335 7.54152124,8.56566417 Z"
       id="path29" />
    <path
       fill="#389FD6"
       d="M11.920572,8.62457739 C11.8680432,8.66588645 11.5410786,7.97956189 11.2667939,7.38694718 C11.1209104,7.0717538 10.9899292,6.76959705 10.9230674,6.64728152 C10.8813997,6.57105535 10.7644935,6.26073113 10.725207,5.96653996 C10.6922521,5.71976289 10.728809,5.48433768 10.7652449,5.4079597 C10.8393588,5.25260025 10.9967525,5.12436681 11.0482004,5.09534395 C11.2114769,5.00323606 11.4100814,4.97421928 11.5,4.97421928 C11.5461226,4.97421928 11.6562636,4.96126555 11.8304232,4.97421928 C11.910013,4.98013905 12.0594797,4.99853904 12.2788235,5.02941924 C12.2613625,5.22018216 12.2445672,5.35667691 12.2284377,5.43890349 C12.1824107,5.67354457 12.1181234,5.86057674 12.1181234,6 C12.1181234,6.10135041 12.0798654,6.2542953 12.0902494,6.43648524 C12.0957199,6.53246801 12.1435991,6.77350773 12.1555916,6.90226024 C12.1786932,7.15028126 12.2571842,7.63056617 12.2284377,7.83368646 C12.1996912,8.03680674 12.0010393,8.56129733 11.920572,8.62457739 Z M11.7533779,5.59857465 L11.7533779,5.59862058 C11.7443731,5.50516628 11.602356,5.45634962 11.4362413,5.48987376 C11.2701267,5.52339791 11.1427584,5.62654206 11.1515413,5.72018004 C11.1606413,5.81372618 11.3026901,6.00899284 11.4687731,5.9754687 C11.6350462,5.94208233 11.7623828,5.69221264 11.7533779,5.59857465 Z"
       id="path31" />
  </g>
  <path
     fill="#59a869"
     fill-rule="evenodd"
     d="m 6.1059164,12.497189 v 0.216936 c 0,0.150555 -0.025928,0.294167 -0.062847,0.433876 h 0.6974634 v 0.650811 H 5.7073035 c -0.322582,0.39309 -0.8095318,0.650811 -1.3593277,0.650811 -0.549796,0 -1.0367454,-0.257721 -1.3593275,-0.650811 H 1.9061964 V 13.148001 H 2.6528817 C 2.6159652,13.008292 2.5900353,12.86468 2.5900353,12.714125 V 12.497189 H 1.9061964 v -0.650811 h 0.683839 v -0.433875 c 0,-0.07419 0.013184,-0.144914 0.022413,-0.216938 H 1.9061964 V 10.544754 H 2.8357075 C 3.0035908,10.261434 3.2488235,10.031047 3.544597,9.8787573 L 2.9271204,9.2695972 3.3934142,8.8092567 4.2794162,9.6839469 c 0.023293,-8.703e-4 0.020657,-0.0043 0.04395,-0.0043 0.00835,0 0.039994,0.00347 0.048344,0.00394 L 5.2533162,8.8093343 5.7196098,9.2696749 5.1197127,9.8619139 C 5.4295496,10.013336 5.6862089,10.251099 5.860245,10.544832 h 0.8802879 v 0.650733 H 6.0835027 c 0.00923,0.07203 0.022415,0.142746 0.022415,0.216938 v 0.433875 h 0.6346152 v 0.650811 z M 3.5982142,11.226556 v 0.604326 H 5.048515 v -0.604326 z m 0,1.20865 v 0.604326 H 5.048515 v -0.604326 z"
     id="path129"
     style="fill:#46ba69;fill-opacity:1;stroke-width:0.402872" />
</svg>

<?xml version="1.0" encoding="UTF-8" standalone="no"?>
<svg
   width="400px"
   height="400px"
   viewBox="0 0 100 100"
   version="1.1"
   id="svg35"
   sodipodi:docname="pluginIcon.svg"
   inkscape:version="1.1.1 (3bf5ae0d25, 2021-09-20)"
   xmlns:inkscape="http://www.inkscape.org/namespaces/inkscape"
   xmlns:sodipodi="http://sodipodi.sourceforge.net/DTD/sodipodi-0.dtd"
   xmlns="http://www.w3.org/2000/svg"
   xmlns:svg="http://www.w3.org/2000/svg">
  <sodipodi:namedview
     id="namedview10"
     pagecolor="#ffffff"
     bordercolor="#666666"
     borderopacity="1.0"
     inkscape:pageshadow="2"
     inkscape:pageopacity="0.0"
     inkscape:pagecheckerboard="0"
     showgrid="false"
     inkscape:zoom="1.7975"
     inkscape:cx="200"
     inkscape:cy="200"
     inkscape:window-width="1910"
     inkscape:window-height="999"
     inkscape:window-x="4970"
     inkscape:window-y="254"
     inkscape:window-maximized="0"
     inkscape:current-layer="svg35"
     inkscape:snap-global="true" />
  <defs
     id="defs39" />
  <g
     fill="none"
     fill-rule="evenodd"
     id="g33"
     transform="matrix(7.680756,0,0,7.5180342,-11.811661,-10.766121)"
     style="stroke:#073984;stroke-opacity:1;stroke-width:0.03509252;stroke-miterlimit:4;stroke-dasharray:none;fill-opacity:1;opacity:1;fill:#0d6efd">
    <path
       fill="#389fd6"
       d="m 6.4236434,2.2052368 c -0.1433253,0 -4.884989,-2.1063892 -4.6469621,2.6536718 0.050637,1.0126683 1.4514341,7.6622954 3.1222512,5.6537954 C 5.5096154,9.7782671 5.899734,9.4556959 5.9984283,9.2676239 6.0445415,9.2982562 6.0021876,9.3100105 5.685318,9 5.3967052,8.7176347 5.2884735,8.3594865 5.2039947,8.1434873 5.1738014,8.0662876 5.1372593,7.8115634 5.141922,7.4766685 5.145755,7.2013689 5.2078254,6.871893 5.224368,6.5423217 5.2398441,6.2339965 5.2046404,5.9255877 5.2039947,5.661377 5.2033058,5.3794587 5.2513714,4.0865482 5.5589253,3.4629736 5.6993587,3.1782407 5.8351933,2.9039875 5.9984283,2.6843979 6.2281333,2.3753908 6.464004,2.1746297 6.4236434,2.2052368 Z m 7.6688096,7.4710175 c -0.550312,0.05525 -0.922595,0.073532 -1.116849,0.054846 -0.417614,-0.040172 -0.669046,-0.2261226 -0.754296,-0.2365678 -0.198782,-0.024356 -0.385719,0.1856404 -0.41806,0.2365678 -0.07816,0.1230752 -0.196309,0.4767877 0,0.6319057 0.257139,0.203184 0.885866,0.190082 1.158803,0.125341 0.517007,-0.122637 0.893807,-0.393334 1.130402,-0.8120927 z m -0.219498,-4.47766 C 13.975287,4.7718132 14.096638,4.1710828 14.04485,3.660598 14.00308,3.2488739 13.813998,2.8958545 13.679408,2.7401496 13.570393,2.6140314 13.002173,2.0586089 12.388888,1.8258783 11.741283,1.5801238 11.043427,1.6605493 10.782951,1.6793319 10.526982,1.6977896 10.218062,1.7466384 9.8561931,1.8258783 10.360124,2.086822 10.706751,2.293148 10.896073,2.4448562 c 0.278034,0.2227943 0.747338,0.683636 1.051501,1.1476487 0.400031,0.6102629 0.572965,1.4379479 0.584942,1.5056234 0.04317,0.2439242 -0.133817,0.8645922 -0.145018,1.1332241 -0.01427,0.3421721 0.07712,0.7686476 0.145018,1.1808283 0.02525,0.1532845 0.04013,0.4919873 -0.06789,0.8199608 -0.05257,0.1596014 -0.178031,0.3736786 -0.376393,0.6422316 l 0.113305,0.1508328 C 12.553747,8.4965714 12.867533,7.9298436 13.142891,7.3250227 13.52249,6.4912379 13.781206,5.5812407 13.872955,5.1985943 Z M 7.867037,10.10148 c 0,-0.2761422 -0.1529826,-0.4702849 -0.429125,-0.4702849 -0.1436093,0 -0.4928818,0.3898259 -0.7427443,0.5605189 -0.2305912,0.157527 -1.1002487,0.419522 -1.0377428,0.478482 0.049747,0.04693 0.5213449,0.280206 0.963626,0.262131 0.096573,-0.0039 0.5529896,-0.04865 0.8502084,-0.230153 C 7.7462052,10.53427 7.867037,10.234177 7.867037,10.10148 Z"
       id="path25"
       style="stroke:#073984;stroke-opacity:1;stroke-width:0.03509252;stroke-miterlimit:4;stroke-dasharray:none;fill-opacity:1;fill:#0d6efd" />
    <path
       fill="#389fd6"
       d="M 7,9.2567614 C 6.6704853,9.2129346 6.4410468,9.1588383 6.3116843,9.0944725 5.9558102,8.9174032 5.7189872,8.6078543 5.6012152,8.3359897 5.4556642,8 5.4487637,8 5.4487637,7.7104643 5.4487637,7.482443 5.4487637,7.5 5.5,7.0582509 5.5117194,6.9572087 5.5230057,6.6173091 5.5230057,6.0459156 5.5230057,5.9406491 5.5153371,5.7648839 5.5,5.51862 6.0744293,5.1287228 6.5885645,4.9752873 7.0424056,5.0583134 7.3499786,5.1145812 7.4497852,5.3783307 7.5,5.4809294 7.7091155,5.9081933 7.6562452,6.3586854 7.6562452,7 7.6562452,7.4504108 7.5,8 7.2951476,8.3690492 7.2051465,8.5311895 7.106764,8.8270936 7,9.2567614 Z M 6.8994697,6.0828367 C 7.0654258,6.1163596 7.2074745,5.9211003 7.2164794,5.8275576 7.2254843,5.7339231 7.0981477,5.6307828 6.9318428,5.5972599 6.7657916,5.5636911 6.6236794,5.6125519 6.6148965,5.7059568 c -0.00916,0.093635 0.1183317,0.3434948 0.2845732,0.3768799 z"
       id="path27"
       style="stroke:#073984;stroke-opacity:1;stroke-width:0.03509252;stroke-miterlimit:4;stroke-dasharray:none;fill-opacity:1;fill:#0d6efd" />
    <path
       fill="#389fd6"
       d="m 7.5415212,8.5656642 c -0.083869,0.1446655 -0.107895,0.2954101 -0.1584091,0.4522336 -0.023786,0.073847 -0.065534,0.1676537 -0.1252435,0.2814211 0.1733589,0.02667 0.2943615,0.046666 0.363008,0.059987 0.1836453,0.035638 0.3089299,0.1320185 0.3426467,0.1956508 0.1783627,0.3366162 0.1487891,0.5258053 0.1622834,0.7666383 0.013494,0.240833 -0.046397,2.36478 0.098241,2.909579 0.048287,0.18188 0.09613,0.357488 0.1797,0.506201 0.1265316,0.225162 0.2918719,0.388667 0.3234146,0.418934 0.1354188,0.12994 0.5594493,0.386403 0.9985697,0.303389 0.2275475,-0.04302 0.718546,-0.297161 1.007051,-0.722323 0.324429,-0.478103 0.436772,-1.283204 0.479672,-1.597066 0.121525,-0.889086 0.190864,-1.793885 0.195892,-1.856785 0.01151,-0.143986 0.03787,-0.5145763 0.230958,-0.7692727 0.05915,-0.078026 0.192366,-0.14967 0.399642,-0.2149328 C 11.821286,9.0165803 11.677802,8.8193543 11.608496,8.7076407 11.332225,8.2623237 11.05162,7.6611504 10.980647,7.5243272 10.854861,7.2818349 10.782581,7.1074124 10.732783,7 10.5,6.4978911 10.398499,5.753551 10.412561,5.6491549 10.5,5 10.907611,4.7533164 11.329114,4.6899478 c 0.178788,-0.026879 0.442415,-0.026879 0.790882,0 C 11.96833,4.3372865 11.852691,4.0900472 11.773076,3.94823 11.570433,3.5872627 11.355188,3.3256719 11.212455,3.1634573 10.773873,2.6650137 10.22569,2.3234998 9.7779811,2.1389156 9.3035698,1.9433223 8.803338,1.8033862 8.3318156,1.8033862 c -0.6968182,0 -1.2737721,0.2115451 -1.7084328,0.5760801 C 6.0245321,2.8817018 5.7487437,3.6812595 5.6957788,4 c 0,0 -0.07443,0.2365046 -0.1219999,0.4947598 C 5.5402813,4.6766181 5.5156883,4.8893111 5.5,5.132839 5.8208016,4.9819789 6.0431496,4.8868127 6.1670441,4.8473403 6.5350579,4.7300922 6.7599542,4.7387384 6.8416164,4.7359805 7.1656948,4.7250357 7.7277956,5.0330007 7.8126122,5.4873602 7.8505241,5.6904532 7.9833196,6.6880723 7.9635233,6.9173991 7.9487007,7.0891093 7.9517359,7.3768094 7.8858698,7.6849568 7.8208263,7.9892552 7.6877159,8.3134934 7.5415212,8.5656642 Z"
       id="path29"
       style="stroke:#073984;stroke-opacity:1;stroke-width:0.03509252;stroke-miterlimit:4;stroke-dasharray:none;fill-opacity:1;fill:#0d6efd" />
    <path
       fill="#389fd6"
       d="M 11.920572,8.6245774 C 11.868043,8.6658865 11.541079,7.9795619 11.266794,7.3869472 11.12091,7.0717538 10.989929,6.769597 10.923067,6.6472815 10.8814,6.5710553 10.764494,6.2607311 10.725207,5.96654 c -0.03295,-0.2467771 0.0036,-0.4822023 0.04004,-0.5585803 0.07411,-0.1553594 0.231508,-0.2835929 0.282955,-0.3126158 0.163277,-0.092108 0.361881,-0.1211246 0.4518,-0.1211246 0.04612,0 0.156264,-0.012954 0.330423,0 0.07959,0.00592 0.229057,0.02432 0.448401,0.0552 -0.01746,0.190763 -0.03426,0.3272577 -0.05039,0.4094843 C 12.182411,5.6735446 12.118123,5.8605767 12.118123,6 c 0,0.1013504 -0.03826,0.2542953 -0.02787,0.4364852 0.0055,0.095983 0.05335,0.3370225 0.06534,0.465775 0.0231,0.2480211 0.101592,0.728306 0.07285,0.9314263 -0.02875,0.2031202 -0.227399,0.7276108 -0.307866,0.7908909 z M 11.753378,5.5985746 v 4.6e-5 c -0.009,-0.093454 -0.151022,-0.142271 -0.317137,-0.1087468 -0.166114,0.033524 -0.293483,0.1366683 -0.2847,0.2303062 0.0091,0.093546 0.151149,0.2888128 0.317232,0.2552887 0.166273,-0.033386 0.29361,-0.2832561 0.284605,-0.3768941 z"
       id="path31"
       style="stroke:#073984;stroke-opacity:1;stroke-width:0.03509252;stroke-miterlimit:4;stroke-dasharray:none;fill-opacity:1;fill:#0d6efd" />
  </g>
  <path
     fill="#59a869"
     fill-rule="evenodd"
     d="m 32.452672,82.0178 v 1.762881 c 0,1.223449 -0.177359,2.390477 -0.429888,3.525787 h 4.770811 v 5.288661 h -7.067529 c -2.206535,3.194351 -5.537387,5.288658 -9.298121,5.288658 -3.760732,0 -7.091577,-2.094307 -9.298115,-5.288658 H 3.7256073 v -5.288661 h 5.107502 c -0.25252,-1.13531 -0.429885,-2.302338 -0.429885,-3.525787 V 82.0178 h -4.677617 v -5.288658 h 4.677619 v -3.52578 c 0,-0.602889 0.09018,-1.177608 0.153318,-1.762896 h -4.830929 v -5.288658 h 6.3580727 c 1.148359,-2.302333 2.825808,-4.174517 4.848969,-5.412068 l -4.223685,-4.950191 3.18956,-3.740842 6.060458,7.107959 c 0.159329,-0.0069 0.141302,-0.03496 0.300629,-0.03496 0.0571,0 0.273567,0.02858 0.330683,0.0317 l 6.030393,-7.10408 3.189558,3.74085 -4.103438,4.812687 c 2.119358,1.230496 3.874969,3.162621 5.065414,5.549569 h 6.021377 v 5.288027 h -4.494241 c 0.06314,0.585335 0.153316,1.159991 0.153316,1.762894 v 3.525782 h 4.340917 v 5.288654 z M 15.299402,71.692307 v 4.910912 H 25.2198 v -4.910912 z m 0,9.821805 v 4.910909 H 25.2198 v -4.910909 z"
     id="path129"
     style="fill:#28a745;fill-opacity:1;stroke:#003000;stroke-width:0.266667;stroke-miterlimit:4;stroke-dasharray:none;stroke-opacity:1" />
</svg>
